src/assets/images/currency/LOOKS.svg

<svg fill="none" height="96" viewBox="0 0 96 96" width="96" xmlns="http://www.w3.org/2000/svg"><circle cx="48" cy="48" fill="#000" r="48"/><path d="m30.4342 34.9106c9.7013-9.6464 25.4302-9.6464 35.1316 0l8.3801 8.3327-8.3801 8.3327c-9.7013 9.6465-25.4303 9.6465-35.1316 0l-8.3801-8.3327z" fill="#000"/><path clip-rule="evenodd" d="m16 43.2569 19.027-19.0401h25.9459l19.027 19.0401-32 31.9868zm46.7026-6.9324c-8.0845-8.1199-21.3209-8.1199-29.4054.0001l-6.9189 6.919 6.9189 6.9189c8.0845 8.1199 21.3209 8.1199 29.4054 0l6.9189-6.9189z" fill="#0ce466" fill-rule="evenodd"/><path d="m47.9999 49.2975c-3.3422 0-6.054-2.7091-6.054-6.054s2.7118-6.054 6.054-6.054 6.0541 2.7091 6.0541 6.054-2.7119 6.054-6.0541 6.054z" fill="#000"/><path clip-rule="evenodd" d="m38.0541 43.2428c0 5.4952 4.4552 9.9459 9.9459 9.9459s9.9459-4.4507 9.9459-9.9459-4.4552-9.9459-9.9459-9.9459-9.9459 4.4507-9.9459 9.9459zm5.6216 0c0 2.3892 1.937 4.3243 4.3243 4.3243 2.3872 0 4.3243-1.9351 4.3243-4.3243s-1.9371-4.3243-4.3243-4.3243c-2.3873 0-4.3243 1.9351-4.3243 4.3243z" fill="#fff" fill-rule="evenodd"/></svg>

<svg width="96" height="96" viewBox="0 0 96 96" fill="none" xmlns="http://www.w3.org/2000/svg">
<circle cx="48" cy="48" r="48" fill="black"/>
<path d="M30.4342 34.9106C40.1355 25.2642 55.8644 25.2642 65.5658 34.9106L73.9459 43.2433L65.5658 51.576C55.8645 61.2225 40.1355 61.2225 30.4342 51.576L22.0541 43.2433L30.4342 34.9106Z" fill="black"/>
<path fill-rule="evenodd" clip-rule="evenodd" d="M16 43.2569L35.027 24.2168H60.9729L79.9999 43.2569L47.9999 75.2437L16 43.2569ZM62.7026 36.3245C54.6181 28.2046 41.3817 28.2046 33.2972 36.3246L26.3783 43.2436L33.2972 50.1625C41.3817 58.2824 54.6181 58.2824 62.7026 50.1625L69.6215 43.2436L62.7026 36.3245Z" fill="#0CE466"/>
<path d="M47.9999 49.2975C44.6577 49.2975 41.9459 46.5884 41.9459 43.2435C41.9459 39.8986 44.6577 37.1895 47.9999 37.1895C51.3421 37.1895 54.054 39.8986 54.054 43.2435C54.054 46.5884 51.3421 49.2975 47.9999 49.2975Z" fill="black"/>
<path fill-rule="evenodd" clip-rule="evenodd" d="M38.0541 43.2428C38.0541 48.738 42.5093 53.1887 48 53.1887C53.4907 53.1887 57.9459 48.738 57.9459 43.2428C57.9459 37.7476 53.4907 33.2969 48 33.2969C42.5093 33.2969 38.0541 37.7476 38.0541 43.2428ZM43.6757 43.2428C43.6757 45.632 45.6127 47.5671 48 47.5671C50.3872 47.5671 52.3243 45.632 52.3243 43.2428C52.3243 40.8536 50.3872 38.9185 48 38.9185C45.6127 38.9185 43.6757 40.8536 43.6757 43.2428Z" fill="white"/>
</svg>
